X:116
T: EIN KAEFER AUF DEM ZAUNE SASS
N: Z0116
O: Europa, Mitteleuropa, Deutschland, Mecklenburg
R: Erzaehlung, lustige Romanze
M: 3/4
L: 1/16
K: G
D2 | G3FG3AB3G | F3ED8 | F4G6
D2 | A3^GA4A4 | d3dd6
G2 | F3GA4D4 | c3BA8 | F4G6

@@@ Tune index: 9874
